app/assets/images/icon-steemit.svg

<svg height="270" preserveAspectRatio="xMidYMid" viewBox="0 0 256 270" width="256" xmlns="http://www.w3.org/2000/svg"><path d="m36.578546 29.0684181c-2.6729096-1.3339838-36.57850457 26.6912741-36.57850457 47.3100224-.04679054 28.1818565 39.54970387 92.0274765 46.21735587 116.7235755 5.7376899 21.181341-9.7324323 46.60243-5.4803421 47.756617 3.8836149 2.493969 40.8247462-34.915574 42.2635552-50.865379 1.8540752-25.39789-43.135029-99.4571863-46.7203541-118.5795528-4.1585092-22.3181277 3.2928843-41.8464892.2982897-42.3452831z" fill="#1a5099"/><path d="m121.251663.05841328c-3.404013-1.6978211-46.6560175 33.97380592-46.6560175 60.27554652-.0467906 35.9034111 50.4460515 117.2539592 58.9443825 148.6897262 7.311022 26.985504-12.405342 59.377381-7.012732 60.826034 4.983193 3.163857 52.066173-44.456258 53.920249-64.806933 2.374619-32.34552-55.019827-126.6875861-59.587753-151.0886942-5.299028-28.3646223 4.181905-53.26406688.391871-53.89567952z" fill="#4ba2f2"/><path d="m208.637007 29.0684181c-2.649514-1.3339838-36.578505 26.6912741-36.578505 47.3100224-.040941 28.1818565 39.549704 92.0274765 46.223205 116.7235755 5.731841 21.181341-9.732432 46.60243-5.486191 47.756617 3.907011 2.493969 40.85399-34.915574 42.269404-50.865379 1.848226-25.39789-43.135029-99.4571863-46.726203-118.5795528-4.15266-22.3181277 3.292885-41.8464892.29829-42.3452831z" fill="#1a5099"/></svg>

<?xml version="1.0" encoding="UTF-8"?>
<svg width="256px" height="270px" viewBox="0 0 256 270" version="1.1" xmlns="http://www.w3.org/2000/svg" xmlns:xlink="http://www.w3.org/1999/xlink" preserveAspectRatio="xMidYMid">
	<g>
		<path d="M36.578546,29.0684181 C33.9056364,27.7344343 4.14347073e-05,55.7596922 4.14347073e-05,76.3784405 C-0.0467491073,104.560297 39.5497453,168.405917 46.2173973,193.102016 C51.9550872,214.283357 36.484965,239.704446 40.7370552,240.858633 C44.6206701,243.352602 81.5618014,205.943059 83.0006104,189.993254 C84.8546856,164.595364 39.8655814,90.5360677 36.2802563,71.4137012 C32.1217471,49.0955735 39.5731406,29.567212 36.578546,29.0684181 L36.578546,29.0684181 L36.578546,29.0684181 Z" fill="#1A5099"></path>
		<path d="M121.251663,0.05841328 C117.84765,-1.63940782 74.5956455,34.0322192 74.5956455,60.3339598 C74.5488549,96.2373709 125.041697,177.587919 133.540028,209.023686 C140.85105,236.00919 121.134686,268.401067 126.527296,269.84972 C131.510489,273.013577 178.593469,225.393462 180.447545,205.042787 C182.822164,172.697267 125.427718,78.3552009 120.859792,53.9540928 C115.560764,25.5894705 125.041697,0.690025917 121.251663,0.05841328 L121.251663,0.05841328 L121.251663,0.05841328 Z" fill="#4BA2F2"></path>
		<path d="M208.637007,29.0684181 C205.987493,27.7344343 172.058502,55.7596922 172.058502,76.3784405 C172.017561,104.560297 211.608206,168.405917 218.281707,193.102016 C224.013548,214.283357 208.549275,239.704446 212.795516,240.858633 C216.702527,243.352602 253.649506,205.943059 255.06492,189.993254 C256.913146,164.595364 211.929891,90.5360677 208.338717,71.4137012 C204.186057,49.0955735 211.631602,29.567212 208.637007,29.0684181 L208.637007,29.0684181 Z" fill="#1A5099"></path>
	</g>
</svg>
